X: 1208
T: The New Demesne
M:C|
L:1/8
R:Reel
B:O'Neill's 1208
N:1st setting
N:Collected by Kennedy
Z:Transcribed by Trish O'Neil
K:D
D2(3FED AD (3FED | (E>c {d}(3cBc G)cEc | D2(3FED AD (3FED |1 cAGF EFGE :|2 cAGE TEDD2 ||
(3fgf df (3fgf df | (3efe ce (3efe ce | (3fgf df (3fgf dB | {d}cAGE TEDD2 |
(3fgf df (3fgf df | (3efe ce (3efe ce | fgaf gedB | {d}cAGE EF"D.C."GE |]


